src/assets/icon/company/Mars.svg

<svg width="200" height="80" viewBox="0 0 200 80" fill="none" xmlns="http://www.w3.org/2000/svg">
<g clip-path="url(#clip0_11265_76181)">
<path fill-rule="evenodd" clip-rule="evenodd" d="M142.297 25.1094C142.607 25.1829 142.913 25.2721 143.226 25.3269C145.735 25.7664 147.964 26.8021 149.862 28.5429C150.008 28.6779 150.139 28.8294 150.306 29.0041C149.08 30.4254 147.745 31.7041 146.5 33.1239C146.403 33.0271 146.328 32.9589 146.26 32.8854C144.948 31.4506 143.331 30.6024 141.427 30.3496C140.763 30.2611 140.083 30.2686 139.423 30.4471C138.435 30.7156 137.674 31.2676 137.38 32.3131C137.103 33.2994 137.467 34.2931 138.28 34.9081C139.017 35.4654 139.849 35.8246 140.707 36.1329C142.245 36.6871 143.8 37.1934 145.315 37.8039C146.859 38.4264 148.301 39.2424 149.433 40.5324C150.475 41.7196 151.149 43.0711 151.37 44.6626C151.687 46.9336 151.115 48.9789 149.907 50.8651C149.167 52.0216 148.141 52.8729 146.956 53.5194C145.465 54.3324 143.872 54.7974 142.181 54.8919C141.421 54.9354 140.657 54.9961 139.897 54.9729C137.702 54.9054 135.577 54.4779 133.591 53.4901C132.106 52.7514 130.817 51.7359 129.736 50.4564C129.703 50.4166 129.683 50.3641 129.643 50.2914C130.911 48.9421 132.178 47.5951 133.488 46.2024C133.653 46.3824 133.798 46.5361 133.938 46.6951C134.77 47.6476 135.745 48.4014 136.891 48.9211C137.676 49.2759 138.49 49.4814 139.345 49.5931C140.175 49.7019 140.976 49.6254 141.771 49.4386C142.552 49.2549 143.233 48.8551 143.691 48.1674C144.584 46.8249 144.197 45.3549 142.971 44.4751C142.371 44.0446 141.682 43.7154 140.995 43.4386C139.885 42.9901 138.741 42.6264 137.613 42.2206C136.465 41.8081 135.337 41.3484 134.299 40.6914C132.467 39.5311 131.154 37.9614 130.677 35.7766C130.246 33.8071 130.542 31.9261 131.473 30.1464C132.622 27.9519 134.385 26.5014 136.676 25.6951C137.344 25.4596 138.029 25.2849 138.736 25.2061C138.797 25.1994 138.854 25.1431 138.913 25.1094H142.297ZM85.7955 46.0591C85.944 46.0854 86.013 46.1079 86.0805 46.1079C87.804 46.1004 89.5267 46.0921 91.2495 46.0816C91.2645 46.0816 91.2817 46.0636 91.2937 46.0501C91.3042 46.0374 91.308 46.0194 91.3357 45.9541L88.6425 39.2236H88.5352L85.7955 46.0591ZM89.4555 25.1094C89.751 25.3351 89.9475 25.6306 90.093 25.9756C90.9382 27.9946 91.788 30.0114 92.6437 32.0259C93.42 33.8544 94.2075 35.6784 94.986 37.5054C95.8785 39.6039 96.7635 41.7061 97.6582 43.8039C98.322 45.3609 98.9955 46.9141 99.6652 48.4681C100.465 50.3266 101.267 52.1844 102.067 54.0429C102.117 54.1591 102.152 54.2806 102.205 54.4329H94.7475C94.4497 53.7001 94.1445 52.9524 93.843 52.2039C93.747 51.9654 93.6525 51.7254 93.57 51.4824C93.4815 51.2214 93.3292 51.1021 93.0412 51.1171C92.5882 51.1396 92.1322 51.1239 91.6777 51.1239H84.4215C84.3127 51.1239 84.2032 51.1314 84.0945 51.1216C83.8657 51.1029 83.7367 51.1869 83.6475 51.4216C83.34 52.2294 83.0077 53.0274 82.683 53.8291C82.6005 54.0316 82.512 54.2311 82.4227 54.4411H76.1527C76.1835 54.2949 76.1902 54.1711 76.2367 54.0639C77.4412 51.2574 78.654 48.4546 79.857 45.6474C81.3345 42.1981 82.8067 38.7459 84.2782 35.2936C85.1722 33.1959 86.061 31.0966 86.9505 28.9966C87.3667 28.0141 87.783 27.0316 88.1902 26.0461C88.3477 25.6636 88.5532 25.3284 88.9102 25.1094H89.4562H89.4555ZM48 25.4529C48.5242 25.5339 48.897 25.7754 49.2255 26.1099C50.5995 27.5124 51.9765 28.9126 53.3527 30.3129C55.7062 32.7084 58.0605 35.1039 60.4147 37.4979C60.5152 37.6006 60.6247 37.6944 60.7507 37.8129C60.8865 37.6876 61.0095 37.5841 61.122 37.4701C64.827 33.7021 68.5335 29.9334 72.2347 26.1609C72.5767 25.8129 72.9502 25.5429 73.4272 25.4649C73.455 25.4889 73.47 25.4994 73.4827 25.5129C73.4947 25.5249 73.5127 25.5391 73.5142 25.5541C73.5232 25.6269 73.5322 25.7004 73.5322 25.7739L73.533 54.3661C73.1392 54.4824 68.6505 54.5221 67.653 54.4201V40.6389C67.1632 41.0101 66.837 41.4181 66.4695 41.7789C66.0765 42.1636 65.6955 42.5619 65.3092 42.9541L64.1902 44.0941L63.0712 45.2319C62.6842 45.6241 62.2935 46.0111 61.9102 46.4071C61.5412 46.7889 61.1812 47.1796 60.7785 47.6064L53.964 40.6809C53.9152 40.7139 53.9002 40.7199 53.8912 40.7311C53.88 40.7446 53.8695 40.7626 53.8672 40.7799C53.862 40.8159 53.8597 40.8534 53.8597 40.8901C53.856 45.3706 53.853 49.8511 53.8485 54.3309C53.8485 54.3481 53.8365 54.3639 53.8297 54.3804C53.4532 54.4794 48.8212 54.5101 48 54.4156V25.4529ZM111.553 30.7111C111.464 31.4401 111.486 38.0116 111.58 38.4616C112.78 38.4331 113.996 38.5539 115.197 38.3229C116.172 38.1354 116.997 37.6704 117.556 36.7929C117.898 36.2536 118.051 35.6634 118.121 35.0281C118.22 34.1356 118.078 33.2971 117.643 32.5284C116.987 31.3711 115.912 30.8881 114.664 30.7786C113.799 30.7036 112.926 30.7066 112.057 30.6804C111.898 30.6751 111.739 30.6999 111.553 30.7111ZM104.782 54.3969V25.6051C104.911 25.5939 105.049 25.5706 105.187 25.5706C108.243 25.5684 111.3 25.5481 114.355 25.5781C115.876 25.5924 117.398 25.6929 118.873 26.1256C120.702 26.6626 122.254 27.6384 123.426 29.1834C124.347 30.3991 124.814 31.7881 124.946 33.3181C125.048 34.4941 124.931 35.6334 124.595 36.7546C124.087 38.4451 123.071 39.7546 121.669 40.7724C121.51 40.8871 121.35 41.0004 121.155 41.1391C121.43 41.3574 121.657 41.5389 121.885 41.7181C122.762 42.4081 123.403 43.2954 123.964 44.2546C124.693 45.4981 125.178 46.8466 125.642 48.2049C126.265 50.0304 126.887 51.8566 127.507 53.6829C127.588 53.9214 127.654 54.1651 127.741 54.4554H120.79C120.682 54.4554 120.572 54.4524 120.463 54.4554C120.292 54.4614 120.195 54.3834 120.155 54.2116C119.936 53.2816 119.729 52.3486 119.489 51.4239C119.002 49.5556 118.522 47.6814 117.619 45.9616C117.046 44.8689 116.215 44.0851 114.985 43.8316C114.614 43.7544 114.234 43.6966 113.856 43.6839C113.166 43.6614 112.474 43.6764 111.783 43.6816C111.714 43.6816 111.645 43.7154 111.603 43.7266C111.568 43.7626 111.553 43.7739 111.544 43.7889C111.534 43.8039 111.527 43.8219 111.521 43.8391C111.515 43.8564 111.509 43.8736 111.508 43.8916C111.505 43.9291 111.502 43.9659 111.502 44.0026C111.499 47.4459 111.496 50.8891 111.492 54.3324C111.492 54.3489 111.478 54.3654 111.472 54.3811C111.074 54.4764 105.37 54.4921 104.782 54.3961" fill="white"/>
</g>
<defs>
<clipPath id="clip0_11265_76181">
<rect width="103.5" height="30" fill="white" transform="translate(48 25)"/>
</clipPath>
</defs>
</svg>

<svg width="200" height="80" fill="none" xmlns="http://www.w3.org/2000/svg"><g clip-path="url(#a)"><path fill-rule="evenodd" clip-rule="evenodd" d="M142.297 25.11c.31.073.616.162.929.217 2.509.44 4.738 1.475 6.636 3.216.146.135.277.286.444.461-1.226 1.421-2.561 2.7-3.806 4.12-.097-.097-.172-.165-.24-.239-1.312-1.434-2.929-2.283-4.833-2.535-.664-.089-1.344-.081-2.004.097-.988.269-1.749.82-2.043 1.866-.277.986.087 1.98.9 2.595.737.557 1.569.917 2.427 1.225 1.538.554 3.093 1.06 4.608 1.67 1.544.623 2.986 1.44 4.118 2.73 1.042 1.187 1.716 2.538 1.937 4.13.317 2.27-.255 4.316-1.463 6.202-.74 1.157-1.766 2.008-2.951 2.654a11.173 11.173 0 0 1-4.775 1.373c-.76.043-1.524.104-2.284.08-2.195-.067-4.32-.494-6.306-1.482a12.013 12.013 0 0 1-3.855-3.034c-.033-.04-.053-.092-.093-.165l3.845-4.089c.165.18.31.334.45.493.832.953 1.807 1.706 2.953 2.226.785.355 1.599.56 2.454.672.83.109 1.631.032 2.426-.154.781-.184 1.462-.584 1.92-1.272.893-1.342.506-2.812-.72-3.692-.6-.43-1.289-.76-1.976-1.036-1.11-.449-2.254-.813-3.382-1.218-1.148-.413-2.276-.873-3.314-1.53-1.832-1.16-3.145-2.73-3.622-4.914-.431-1.97-.135-3.85.796-5.63 1.149-2.195 2.912-3.646 5.203-4.452a9.284 9.284 0 0 1 2.06-.489c.061-.007.118-.063.177-.097h3.384ZM85.796 46.06c.148.025.217.048.284.048 1.724-.008 3.447-.016 5.17-.026.014 0 .032-.018.044-.032.01-.013.014-.03.042-.096l-2.694-6.73h-.107l-2.74 6.835Zm3.66-20.95c.295.225.492.52.637.866.845 2.019 1.695 4.035 2.55 6.05.777 1.828 1.564 3.652 2.343 5.48.892 2.098 1.777 4.2 2.672 6.298.664 1.557 1.338 3.11 2.007 4.664l2.402 5.575c.05.116.085.238.138.39h-7.457c-.298-.733-.604-1.48-.905-2.23-.096-.238-.19-.478-.273-.72-.088-.262-.24-.38-.529-.366-.453.023-.909.007-1.363.007H84.42c-.108 0-.218.007-.327-.002-.228-.02-.357.065-.447.3-.307.807-.64 1.605-.964 2.407-.083.203-.171.402-.26.612h-6.27c.03-.146.037-.27.084-.377 1.204-2.807 2.417-5.61 3.62-8.417 1.478-3.449 2.95-6.901 4.421-10.353.894-2.098 1.783-4.197 2.672-6.297.417-.983.833-1.965 1.24-2.95.158-.383.363-.719.72-.938h.546ZM48 25.452c.524.08.897.322 1.225.657 1.374 1.402 2.752 2.803 4.128 4.203l7.062 7.185c.1.103.21.196.336.315.136-.125.259-.229.371-.343 3.705-3.768 7.412-7.537 11.113-11.31.342-.347.715-.617 1.192-.695.028.024.043.034.056.048.012.012.03.026.031.041.01.073.018.146.018.22l.001 28.592c-.394.116-4.883.156-5.88.054V40.64c-.49.371-.816.78-1.184 1.14-.392.385-.773.783-1.16 1.175l-1.119 1.14-1.119 1.138c-.387.392-.777.78-1.16 1.175-.37.382-.73.773-1.133 1.2l-6.814-6.926c-.049.033-.064.039-.073.05a.104.104 0 0 0-.024.049.778.778 0 0 0-.007.11l-.011 13.44c0 .018-.012.034-.02.05-.376.1-5.008.13-5.829.036V25.453Zm63.553 5.258c-.089.73-.067 7.3.027 7.75 1.2-.028 2.416.093 3.617-.138.975-.188 1.8-.653 2.359-1.53.342-.54.495-1.13.565-1.765.099-.892-.043-1.73-.478-2.5-.656-1.157-1.731-1.64-2.979-1.75-.865-.074-1.738-.071-2.607-.098-.159-.005-.318.02-.504.031Zm-6.771 23.686V25.605c.129-.011.267-.034.405-.034 3.056-.003 6.113-.023 9.168.007 1.521.014 3.043.115 4.518.548 1.829.537 3.381 1.512 4.553 3.057.921 1.216 1.388 2.605 1.52 4.135a9.096 9.096 0 0 1-.351 3.437c-.508 1.69-1.524 3-2.926 4.017-.159.115-.319.228-.514.367l.73.58c.877.69 1.518 1.576 2.079 2.536.729 1.243 1.214 2.592 1.678 3.95a3603.33 3603.33 0 0 1 1.865 5.478c.081.238.147.482.234.772h-6.951c-.108 0-.218-.003-.327 0-.171.006-.268-.072-.308-.243-.219-.93-.426-1.863-.666-2.788-.487-1.868-.967-3.743-1.87-5.462-.573-1.093-1.404-1.877-2.634-2.13a6.675 6.675 0 0 0-1.129-.148c-.69-.023-1.382-.008-2.073-.002-.069 0-.138.033-.18.045-.035.036-.05.047-.059.062a.224.224 0 0 0-.023.05c-.006.017-.012.035-.013.053-.003.037-.006.074-.006.11l-.01 10.33c0 .017-.014.033-.02.05-.398.094-6.102.11-6.69.014" fill="#fff"/></g><defs><clipPath id="a"><path fill="#fff" transform="translate(48 25)" d="M0 0h103.5v30H0z"/></clipPath></defs></svg>
